src/resources/assets/apps-add.svg

<svg xmlns="http://www.w3.org/2000/svg" width="16" height="16"><path d="M 13 1.5 C 13 1.222656 12.777344 1 12.5 1 C 12.222656 1 12 1.222656 12 1.5 L 12 3 L 10.5 3 C 10.222656 3 10 3.222656 10 3.5 C 10 3.777344 10.222656 4 10.5 4 L 12 4 L 12 5.5 C 12 5.777344 12.222656 6 12.5 6 C 12.777344 6 13 5.777344 13 5.5 L 13 4 L 14.5 4 C 14.777344 4 15 3.777344 15 3.5 C 15 3.222656 14.777344 3 14.5 3 L 13 3 Z M 3.75 2 C 2.785156 2 2 2.785156 2 3.75 L 2 12.25 C 2 13.214844 2.785156 14 3.75 14 L 12.25 14 C 13.214844 14 14 13.214844 14 12.25 L 14 9.25 C 14 8.285156 13.214844 7.5 12.25 7.5 L 8.5 7.5 L 8.5 3.75 C 8.5 2.785156 7.714844 2 6.75 2 Z M 7.5 8.5 L 7.5 13 L 3.75 13 C 3.335938 13 3 12.664062 3 12.25 L 3 8.5 Z M 7.5 3.75 L 7.5 7.5 L 3 7.5 L 3 3.75 C 3 3.335938 3.335938 3 3.75 3 L 6.75 3 C 7.164062 3 7.5 3.335938 7.5 3.75 Z M 12.25 13 L 8.5 13 L 8.5 8.5 L 12.25 8.5 C 12.664062 8.5 13 8.835938 13 9.25 L 13 12.25 C 13 12.664062 12.664062 13 12.25 13 Z M 12.25 13" fill="#ddd"/></svg>

<svg xmlns="http://www.w3.org/2000/svg" width="16" height="16"><path d="M13 1.5c0-.277-.223-.5-.5-.5s-.5.223-.5.5V3h-1.5c-.277 0-.5.223-.5.5s.223.5.5.5H12v1.5c0 .277.223.5.5.5s.5-.223.5-.5V4h1.5c.277 0 .5-.223.5-.5s-.223-.5-.5-.5H13zM3.75 2C2.785 2 2 2.785 2 3.75v8.5c0 .965.785 1.75 1.75 1.75h8.5c.965 0 1.75-.785 1.75-1.75v-3c0-.965-.785-1.75-1.75-1.75H8.5V3.75C8.5 2.785 7.715 2 6.75 2zM7.5 8.5V13H3.75a.75.75 0 01-.75-.75V8.5zm0-4.75V7.5H3V3.75A.75.75 0 013.75 3h3a.75.75 0 01.75.75zM12.25 13H8.5V8.5h3.75a.75.75 0 01.75.75v3a.75.75 0 01-.75.75zm0 0" fill="#ddd"/></svg>
